!!!COM: Bach, Johann Sebastian
!!!CDT: 1685/3//-1750/7/28/
!!!OTL@@DE: Herr Gott, dich loben alle wir
!!!AGN: 4-Part Chorale
!!!SCT: BH 164
!!!SCT: BWV 326
**harm	**root	**kern	**kern	**kern	**kern
!	!	!bass	!tenor	!alto	!soprno
*	*Iorgan	*Iorgan	*Iorgan	*Iorgan	*Iorgan
*	*	*clefF4	*clefF4	*clefG2	*clefG2
*k[b-e-a-d-]	*k[b-e-a-d-]	*k[b-e-a-d-]	*k[b-e-a-d-]	*k[b-e-a-d-]	*k[b-e-a-d-]
*A-:	*A-:	*A-:	*A-:	*A-:	*A-:
*M3/4	*M3/4	*M3/4	*M3/4	*M3/4	*M3/4
*MM60	*MM60	*MM60	*MM60	*MM60	*MM60
I	4BB-	8AA-	4c	4e-	4a-
.	.	8GG	.	.	.
=1	=1	=1	=1	=1	=1
vi	2GG	8FF	2c	2f	2a-
.	.	8GG	.	.	.
.	.	8AA-	.	.	.
.	.	8BB-	.	.	.
I7	4BB-	8C	4c	4e-	4g
.	.	8AA-	.	.	.
=2	=2	=2	=2	=2	=2
IV	2EE-	8D-	2A-	2d-	2f
.	.	8E-	.	.	.
.	.	8F	.	.	.
.	.	8G	.	.	.
I	4BB-	8A-	4A-	4c	4e-
.	.	8G	.	.	.
=3	=3	=3	=3	=3	=3
vi	4GG	8F	2A-	4c	4a-
.	.	8E-	.	.	.
V7b/V	4CC	8D-	.	4f	2b-
.	.	8C	.	.	.
V7d	4FF	8D-	4G	4e-	.
.	.	8E-	.	.	.
=4	=4	=4	=4	=4	=4
I;	2BB-;	2AA-;	2A-;	2e-;	2cc;
V/VI	4DD	4EE	4G	4g	4cc
=5	=5	=5	=5	=5	=5
vi	2.GG	8FF	2A-	2f	2cc
.	.	8C	.	.	.
.	.	8F	.	.	.
.	.	8E-	.	.	.
.	.	8D-	4A-	4f	4cc
.	.	8C	.	.	.
=6	=6	=6	=6	=6	=6
IV7	4EE-	8D-	4A-	4f	2b-
.	.	8BB-	.	.	.
V	4FF	8E-	4G	4e-	.
.	.	8D-	.	.	.
Ib	4BB-	8C	4A-	4e-	4cc
.	.	8BB-	.	.	.
=7	=7	=7	=7	=7	=7
V7b	4FF	8AA-	4B-	4e-	4dd-
.	.	8GG	.	.	.
I	2BB-	8AA-	2A-	2e-	2cc
.	.	8BB-	.	.	.
.	.	8C	.	.	.
.	.	8D-	.	.	.
!!linebreak: 2
=8	=8	=8	=8	=8	=8
V;	2FF;	2E-;	2G;	2e-;	2b-;
vi	4GG	4F	4c	4f	4a-
=9	=9	=9	=9	=9	=9
V	2FF	8G	2B-	2e-	2b-
.	.	8E-	.	.	.
.	.	8F	.	.	.
.	.	8G	.	.	.
vi7	4GG	8A-	4A-	8e-	4cc
.	.	8F	.	8a-	.
=10	=10	=10	=10	=10	=10
ii7	4CC	8D-	4A-	4f	2b-
.	.	8C	.	.	.
V7d	4FF	8D-	4G	8e-	.
.	.	8E-	.	8d-	.
vi	4GG	8F	4A-	4c	4a-
.	.	8C	.	.	.
=11	=11	=11	=11	=11	=11
IV	4EE-	8D-	8A-	4f	4f
.	.	8AA-	8c	.	.
vii7D	4AA	8BB-	4d-	4f	2g
.	.	8GG	.	.	.
V/VI	4DD	8C	4c	4e	.
.	.	8CC	.	.	.
=12	=12	=12	=12	=12	=12
vi;	2GG;	2FF;	2c;	2f;	2a-;
Vb	4FF	4G	4B-	4e-	4ee-
=13	=13	=13	=13	=13	=13
I	2BB-	8A-	2c	2e-	2cc
.	.	8B-	.	.	.
.	.	8A-	.	.	.
.	.	8G	.	.	.
vi	4GG	8F	4c	4f	4a-
.	.	8E-	.	.	.
=14	=14	=14	=14	=14	=14
V7d	2FF	8D-	2G	2e-	2b-
.	.	8F	.	.	.
.	.	8E-	.	.	.
.	.	8D-	.	.	.
iii7	4DD	8C	4G	4e-	4dd-
.	.	8BB-	.	.	.
=15	=15	=15	=15	=15	=15
I	4BB-	8AA-	2A-	4e-	4cc
.	.	8C	.	.	.
ii7b	4CC	8D-	.	4f	2b-
.	.	8BB-	.	.	.
V7	4FF	8E-	4G	8e-	.
.	.	8EE-	.	8d-	.
=16	=16	=16	=16	=16	=16
I;	2BB-;	2AA-;	2E-;	2c;	2a-;
==	==	==	==	==	==
*-	*-	*-	*-	*-	*-
!!chor2scor: -l 2 -s 0.6 -o %b.pmx
!!!YEC: Copyright 2003 by Craig Stuart Sapp
!!!license: GNU General Public License (http://www.gnu.org/copyleft/gpl.html)
!!!SMA: 371 Bach Chorales, edited by Ludwig Erk, C.F. Peters
!!!PDT: 1850, 1865
